X:4
T:O Seigneur, guris-nous - G138
C:M.Debaisieux
M:12/8
L:1/8
K:Cm
G2A|:"Dom"G2FE2D"Sol"G3"Lab"E3|"Dom"C6C3C2D|E3C3"Fam"F3E3|"Sol"D6D3||
"REFRAIN"C2E|"Dom"G3G2AG3"Fam"A2B|"Dom"c3"Sib"B2A"Mib"G3"Fam"F2A|"Sol"G6"Lab"E3|"Dom"C6G2A:|
